src/img/HomePage/Chopsticks/3Right.svg

<?xml version="1.0" encoding="UTF-8"?> <svg xmlns="http://www.w3.org/2000/svg" width="145" height="164" viewBox="0 0 145 164" fill="none"> <path fill-rule="evenodd" clip-rule="evenodd" d="M73.196 161.369C67.0661 158.299 61.8909 152.565 58.8557 145.48C57.565 142.467 55.568 138.311 54.4183 136.242C51.5023 130.995 48.3979 121.69 45.6226 109.881C40.7719 89.2381 37.3402 81.7524 27.3175 69.9496C16.6302 57.3636 13.6656 51.8427 12.5108 42.3711C10.6533 27.1318 21.7543 12.6323 37.8745 9.2451C41.2242 8.54148 47.7813 7.96086 52.4462 7.95507C68.1457 7.93544 73.067 7.28548 83.0395 3.91273C99.2951 -1.58452 106.616 -1.05611 116.481 6.32798C122.692 10.9767 126.692 17.0115 132.041 29.8007C134.347 35.3103 137.852 43.0457 139.832 46.9902C146.271 59.8216 146.278 68.3242 139.861 89.7197C131.813 116.56 126.16 126.261 105.87 148.052C92.8817 162.002 82.7235 166.142 73.196 161.369ZM71.5857 157.262C66.4977 153.614 63.4818 149.16 57.8262 136.943C52.7155 125.905 51.6373 122.73 48.5547 109.65C43.5855 88.5659 41.9723 85.0923 29.5397 68.7024C18.0828 53.6001 15.9849 49.6232 15.2533 41.6286C14.4344 32.6679 18.5039 23.5816 26.0393 17.5492C32.8636 12.0852 40.8081 10.1793 55.7067 10.4307C68.6505 10.6497 72.1955 10.1318 84.3591 6.24644C96.8364 2.26058 100.87 1.78384 106.412 3.63798C116.014 6.85161 122.112 14.0877 129.404 30.9243C132.234 37.4573 135.558 44.762 136.793 47.1573C140.258 53.8839 141.91 59.7532 141.91 65.3349C141.91 72.2154 137.746 88.5115 131.78 104.982C129.864 110.27 129.1 111.481 127.65 111.516C125.564 111.567 124.886 113.418 126.676 114.176C129.783 115.489 108.175 143.351 95.7408 154.063C87.0468 161.553 79.0491 162.612 71.5857 157.262ZM1.7011 141.592C-1.79847 138.775 3.18229 132.805 8.17645 133.83C12.6092 134.74 12.3737 138.623 7.7235 141.293C4.30902 143.254 3.79783 143.279 1.7011 141.592ZM63.9607 142.365C64.096 141.706 64.6135 141.25 65.1108 141.352C65.608 141.454 65.9042 142.077 65.769 142.736C65.6337 143.395 65.1162 143.851 64.6189 143.749C64.1217 143.647 63.8255 143.024 63.9607 142.365ZM73.8213 140.226C73.9717 139.494 74.5056 139.114 75.0076 139.381C75.5096 139.648 75.8506 140.208 75.7651 140.625C75.6795 141.042 75.1453 141.423 74.5787 141.47C74.0121 141.518 73.671 140.959 73.8213 140.226ZM66.9166 137.144C67.0669 136.412 67.6008 136.032 68.1028 136.299C68.6049 136.566 68.9459 137.126 68.8603 137.543C68.7747 137.96 68.2406 138.341 67.674 138.388C67.1074 138.436 66.7663 137.877 66.9166 137.144ZM83.7638 137.688C83.854 137.249 84.538 137.014 85.2838 137.168C86.0297 137.321 86.5662 137.805 86.476 138.245C86.3859 138.684 85.7018 138.918 84.956 138.765C84.2101 138.612 83.6737 138.127 83.7638 137.688ZM112.357 126.907C112.447 126.467 113.131 126.233 113.877 126.386C114.623 126.539 115.16 127.024 115.069 127.463C114.979 127.903 114.295 128.137 113.549 127.984C112.803 127.831 112.267 127.346 112.357 126.907ZM61.8899 111.138C62.0403 110.406 62.5742 110.026 63.0762 110.293C63.5782 110.56 63.9193 111.12 63.8337 111.537C63.7482 111.954 63.2139 112.335 62.6473 112.383C62.0807 112.43 61.7396 111.871 61.8899 111.138ZM72.1027 112.756C72.3777 112.32 72.9887 112.042 73.4615 112.139C73.9344 112.237 74.3866 112.732 74.4678 113.241C74.549 113.75 73.9381 114.027 73.1091 113.857C72.28 113.687 71.8277 113.191 72.1027 112.756ZM111.778 120.544C111.929 119.812 112.463 119.432 112.965 119.699C113.467 119.966 113.808 120.526 113.722 120.943C113.637 121.36 113.102 121.741 112.536 121.789C111.969 121.836 111.628 121.277 111.778 120.544ZM119.503 119.632C119.638 118.973 120.156 118.518 120.653 118.62C121.15 118.722 121.446 119.344 121.311 120.003C121.176 120.662 120.658 121.118 120.161 121.016C119.664 120.914 119.368 120.291 119.503 119.632ZM56.299 106.245C56.3892 105.805 57.0733 105.571 57.8192 105.724C58.565 105.877 59.1015 106.362 59.0113 106.801C58.9211 107.241 58.2372 107.475 57.4913 107.322C56.7454 107.169 56.2089 106.684 56.299 106.245ZM67.312 107.672C67.4022 107.233 67.8828 106.957 68.3801 107.059C68.8773 107.161 69.2104 107.604 69.1203 108.043C69.0301 108.483 68.5494 108.759 68.0522 108.657C67.5549 108.555 67.2218 108.112 67.312 107.672ZM118.425 114.3C117.833 113.514 118.906 112.434 120.046 112.668C120.514 112.764 120.786 113.381 120.651 114.041C120.397 115.276 119.258 115.409 118.425 114.3ZM88.2676 106.562C88.4179 105.829 88.9518 105.45 89.4538 105.717C89.9558 105.984 90.2968 106.544 90.2113 106.961C90.1257 107.378 89.5916 107.759 89.025 107.806C88.4583 107.854 88.1172 107.295 88.2676 106.562ZM81.3027 104.654C81.5777 104.218 82.1887 103.941 82.6615 104.038C83.1343 104.135 83.5866 104.631 83.6678 105.139C83.749 105.648 83.1381 105.926 82.309 105.755C81.48 105.585 81.0277 105.09 81.3027 104.654ZM117.524 106.323C117.614 105.883 118.095 105.607 118.592 105.709C119.089 105.812 119.422 106.254 119.332 106.694C119.242 107.133 118.761 107.409 118.264 107.307C117.767 107.205 117.434 106.762 117.524 106.323ZM82.5104 97.8882C82.6457 97.2291 83.3665 96.8152 84.1124 96.9682C84.8583 97.1213 85.3578 97.7858 85.2226 98.4448C85.0873 99.1038 84.3664 99.5178 83.6206 99.3647C82.8747 99.2117 82.3752 98.5472 82.5104 97.8882ZM125.448 107.371C124.615 106.263 125.207 105.402 126.604 105.689C127.35 105.842 127.891 106.305 127.806 106.719C127.599 107.726 126.039 108.158 125.448 107.371ZM76.2638 96.1899C76.354 95.7506 76.8346 95.4746 77.3319 95.5767C77.8291 95.6787 78.1621 96.1217 78.0719 96.561C77.9817 97.0004 77.5012 97.2764 77.004 97.1743C76.5067 97.0723 76.1736 96.6293 76.2638 96.1899ZM125.566 100.324C126.428 98.958 128.425 99.1123 128.136 100.523C127.993 101.219 127.232 101.655 126.445 101.494C125.658 101.332 125.261 100.806 125.566 100.324ZM70.411 87.9818C70.5538 87.286 71.3151 86.8495 72.1017 87.011C73.6983 87.3386 73.0678 89.0016 71.2903 89.1513C70.6633 89.204 70.2682 88.6776 70.411 87.9818ZM77.2395 90.0309C76.6481 89.2444 77.7205 88.1641 78.8605 88.3981C79.3288 88.4942 79.6007 89.1119 79.4655 89.771C79.212 91.006 78.0729 91.1393 77.2395 90.0309ZM71.8181 81.1254C71.9083 80.6861 72.5923 80.4519 73.3382 80.6049C74.0841 80.758 74.6206 81.2427 74.5304 81.6821C74.4403 82.1215 73.7562 82.3557 73.0103 82.2026C72.2644 82.0495 71.7279 81.5648 71.8181 81.1254ZM91.9675 83.9429C92.1103 83.2471 92.6808 82.9189 93.2363 83.2144C94.8112 84.052 94.7358 85.8289 93.1392 85.5012C92.3527 85.3398 91.8247 84.6387 91.9675 83.9429ZM99.7961 85.4572C98.9627 84.3488 99.5548 83.488 100.953 83.7748C101.698 83.9279 102.239 84.3911 102.154 84.8049C101.948 85.8122 100.388 86.2437 99.7961 85.4572ZM132.143 90.1762C132.234 89.7369 132.69 89.4559 133.158 89.552C133.627 89.6481 134.186 90.1376 134.404 90.6401C134.621 91.1425 134.164 91.4233 133.389 91.2643C132.614 91.1053 132.053 90.6156 132.143 90.1762ZM41.7247 68.133C42.5874 66.7667 44.5841 66.9209 44.2946 68.3316C44.1518 69.0274 43.3905 69.4639 42.604 69.3025C41.8165 69.1408 41.4204 68.615 41.7247 68.133ZM66.4454 73.6402C65.5934 72.508 66.1689 71.6413 67.5811 71.9311C68.327 72.0842 68.8265 72.7486 68.6912 73.4077C68.4352 74.6554 67.2964 74.773 66.4454 73.6402ZM106.57 78.1115C107.433 76.7451 109.43 76.8994 109.14 78.3101C108.998 79.0059 108.236 79.4424 107.45 79.2809C106.662 79.1193 106.266 78.5935 106.57 78.1115ZM48.2993 65.777C47.7079 64.9904 48.7804 63.9102 49.9205 64.1442C50.3888 64.2403 50.6605 64.858 50.5253 65.517C50.2718 66.752 49.1327 66.8854 48.2993 65.777ZM114.461 78.523C113.87 77.7365 114.942 76.6563 116.082 76.8902C116.551 76.9864 116.822 77.6041 116.687 78.2631C116.434 79.4981 115.295 79.6314 114.461 78.523ZM35.0253 61.342C34.1919 60.2336 34.784 59.3728 36.1817 59.6596C36.9276 59.8127 37.4686 60.2759 37.3837 60.6897C37.1769 61.697 35.6167 62.1285 35.0253 61.342ZM68.1811 66.7122C68.3239 66.0165 69.0853 65.58 69.8718 65.7414C70.6593 65.903 71.0554 66.4289 70.7513 66.9101C69.8884 68.2772 67.8915 68.123 68.1811 66.7122ZM45.2624 59.0258C45.3525 58.5865 46.0365 58.3522 46.7824 58.5053C47.5283 58.6584 48.0648 59.1431 47.9746 59.5825C47.8845 60.0218 47.2004 60.256 46.4545 60.103C45.7086 59.9499 45.1722 59.4652 45.2624 59.0258ZM20.4618 52.2086C20.7368 51.773 21.3477 51.4955 21.8206 51.5925C22.2934 51.6896 22.7456 52.1853 22.8268 52.694C22.9081 53.2026 22.2971 53.4802 21.4681 53.31C20.639 53.1399 20.1868 52.6441 20.4618 52.2086ZM52.4106 56.3305C52.5008 55.8911 52.9815 55.6152 53.4787 55.7172C53.976 55.8193 54.309 56.2622 54.2188 56.7016C54.1286 57.1409 53.6481 57.417 53.1508 57.3149C52.6536 57.2129 52.3205 56.7698 52.4106 56.3305ZM27.5063 49.1381C27.6415 48.4791 28.159 48.0234 28.6563 48.1254C29.1535 48.2275 29.4497 48.8502 29.3144 49.5092C29.1792 50.1683 28.6617 50.624 28.1644 50.5219C27.6672 50.4199 27.371 49.7972 27.5063 49.1381ZM78.4724 57.8839C78.6129 57.1994 79.0893 56.9441 79.5308 57.3178C79.9723 57.6914 80.2642 58.3349 80.1793 58.7487C80.0944 59.1625 79.6182 59.4169 79.1209 59.3148C78.6237 59.2128 78.3319 58.5685 78.4724 57.8839ZM97.6125 61.0287C97.7477 60.3697 98.2651 59.914 98.7624 60.016C99.2596 60.1181 99.5558 60.7408 99.4206 61.3998C99.2853 62.0588 98.7678 62.5145 98.2705 62.4125C97.7733 62.3104 97.4772 61.6878 97.6125 61.0287ZM72.6259 54.2357C72.7612 53.5767 73.2787 53.121 73.776 53.223C74.2732 53.3251 74.5693 53.9478 74.4341 54.6068C74.2988 55.2659 73.7814 55.7216 73.2841 55.6195C72.7869 55.5175 72.4907 54.8948 72.6259 54.2357ZM104.597 59.1322C104.732 58.4732 105.453 58.0592 106.199 58.2123C106.945 58.3653 107.444 59.0298 107.309 59.6888C107.174 60.3479 106.453 60.7619 105.707 60.6088C104.961 60.4557 104.461 59.7912 104.597 59.1322ZM39.0905 43.1908C39.2409 42.4583 39.7749 42.0784 40.2769 42.3454C40.7789 42.6124 41.1199 43.1728 41.0343 43.5898C40.9488 44.0068 40.4146 44.3875 39.848 44.4352C39.2814 44.4829 38.9402 43.9234 39.0905 43.1908ZM75.6637 48.6156C75.7538 48.1762 76.4379 47.942 77.1838 48.0951C77.9297 48.2482 78.4661 48.7329 78.3759 49.1722C78.2858 49.6116 77.6018 49.8458 76.8559 49.6928C76.11 49.5397 75.5735 49.055 75.6637 48.6156ZM103.499 53.773C102.647 52.6407 103.222 51.774 104.634 52.0638C105.38 52.2169 105.88 52.8814 105.744 53.5404C105.488 54.7882 104.35 54.9058 103.499 53.773ZM70.1151 45.8119C69.8602 45.2218 70.1318 44.4634 70.7192 44.1261C71.4316 43.717 71.9419 43.87 72.2511 44.5853C72.5059 45.1754 72.2343 45.9338 71.6469 46.2711C70.9345 46.6802 70.4243 46.5272 70.1151 45.8119ZM38.0122 37.8589C37.4208 37.0724 38.4933 35.9922 39.6333 36.2262C40.1017 36.3223 40.3734 36.94 40.2382 37.599C39.9847 38.834 38.8456 38.9673 38.0122 37.8589ZM110.839 51.6722C110.929 51.2329 111.409 50.9569 111.907 51.0589C112.404 51.161 112.737 51.604 112.647 52.0433C112.557 52.4827 112.076 52.7587 111.579 52.6566C111.081 52.5546 110.748 52.1116 110.839 51.6722ZM45.2505 36.1303C45.3858 35.4712 46.1066 35.0573 46.8525 35.2103C47.5984 35.3634 48.0979 36.0279 47.9627 36.6869C47.8274 37.3459 47.1065 37.7599 46.3607 37.6068C45.6148 37.4538 45.1153 36.7893 45.2505 36.1303ZM134.837 54.1C134.927 53.6606 135.407 53.3846 135.905 53.4867C136.402 53.5887 136.735 54.0317 136.645 54.471C136.555 54.9104 136.074 55.1864 135.577 55.0843C135.08 54.9823 134.746 54.5393 134.837 54.1ZM74.2353 40.2749C73.3832 39.1427 73.9586 38.2759 75.3708 38.5658C76.1167 38.7188 76.6163 39.3833 76.4811 40.0424C76.225 41.2901 75.0863 41.4077 74.2353 40.2749ZM44.5899 30.1673C44.7402 29.4348 45.2742 29.0549 45.7762 29.322C46.2782 29.589 46.6193 30.1493 46.5337 30.5663C46.4481 30.9833 45.9139 31.364 45.3473 31.4117C44.7807 31.4594 44.4395 30.8999 44.5899 30.1673ZM132.45 47.3665C132.6 46.634 133.134 46.2541 133.636 46.5211C134.138 46.7881 134.479 47.3485 134.394 47.7655C134.308 48.1825 133.774 48.5632 133.207 48.6109C132.641 48.6586 132.3 48.0991 132.45 47.3665ZM51.8768 29.8589C51.0248 28.7267 51.6001 27.8599 53.0123 28.1498C53.7582 28.3028 54.2578 28.9673 54.1226 29.6263C53.8665 30.8741 52.7278 30.9917 51.8768 29.8589ZM123.606 42.8926C122.773 41.7842 123.365 40.9234 124.763 41.2103C125.509 41.3633 126.05 41.8265 125.965 42.2403C125.758 43.2476 124.198 43.6791 123.606 42.8926ZM43.4571 22.7964C43.7321 22.3608 44.343 22.0833 44.8159 22.1803C45.2887 22.2774 45.7409 22.7731 45.8221 23.2818C45.9034 23.7904 45.2924 24.0679 44.4634 23.8978C43.6344 23.7277 43.1821 23.2319 43.4571 22.7964ZM50.8317 22.7074C50.9219 22.268 51.6059 22.0338 52.3518 22.1869C53.0977 22.3399 53.6341 22.8246 53.5439 23.264C53.4537 23.7034 52.7698 23.9376 52.0239 23.7845C51.278 23.6314 50.7415 23.1467 50.8317 22.7074ZM121.864 35.558C122.139 35.1225 122.75 34.8449 123.223 34.942C123.696 35.039 124.148 35.5348 124.229 36.0434C124.31 36.5521 123.699 36.8296 122.87 36.6595C122.041 36.4893 121.589 35.9936 121.864 35.558ZM58.5562 21.7952C58.6463 21.3559 59.3304 21.1217 60.0763 21.2747C60.8222 21.4278 61.3586 21.9125 61.2684 22.3519C61.1783 22.7912 60.4943 23.0255 59.7484 22.8724C59.0025 22.7193 58.466 22.2346 58.5562 21.7952ZM89.8088 26.4819C90.0838 26.0463 90.6948 25.7688 91.1676 25.8658C91.6405 25.9629 92.0927 26.4586 92.1739 26.9672C92.2551 27.4759 91.6442 27.7535 90.8151 27.5833C89.9861 27.4132 89.5338 26.9174 89.8088 26.4819ZM51.6435 17.3471C51.0521 16.5606 52.1246 15.4804 53.2646 15.7144C53.7329 15.8105 54.0048 16.4282 53.8695 17.0872C53.616 18.3222 52.4769 18.4555 51.6435 17.3471ZM88.7961 16.763C88.9314 16.1039 89.4488 15.6482 89.946 15.7503C90.4433 15.8523 90.7395 16.475 90.6042 17.1341C90.469 17.7931 89.9514 18.2488 89.4542 18.1468C88.957 18.0447 88.6609 17.422 88.7961 16.763ZM93.1015 12.4902C92.2681 11.3818 92.8603 10.521 94.258 10.8079C95.0039 10.961 95.5447 11.4241 95.4598 11.8379C95.253 12.8452 93.6928 13.2767 93.1015 12.4902ZM87.1389 7.52538C88.0016 6.15902 89.9985 6.31326 89.709 7.72399C89.5662 8.41977 88.8048 8.85624 88.0182 8.69481C87.2308 8.5332 86.8346 8.00737 87.1389 7.52538Z" fill="#201B19"></path> </svg>

<svg xmlns="http://www.w3.org/2000/svg" width="145" height="164" fill="none"><path fill-rule="evenodd" clip-rule="evenodd" d="M73.196 161.369c-6.13-3.07-11.305-8.804-14.34-15.889-1.291-3.013-3.288-7.169-4.438-9.238-2.916-5.247-6.02-14.552-8.795-26.361-4.851-20.643-8.283-28.129-18.305-39.931C16.63 57.364 13.665 51.843 12.51 42.37c-1.858-15.24 9.243-29.739 25.363-33.126 3.35-.704 9.907-1.284 14.572-1.29 15.7-.02 20.621-.67 30.594-4.042 16.255-5.498 23.576-4.97 33.441 2.415 6.211 4.649 10.211 10.684 15.56 23.473 2.306 5.51 5.811 13.245 7.791 17.19 6.439 12.83 6.446 21.333.029 42.729-8.048 26.84-13.701 36.541-33.991 58.332-12.988 13.95-23.147 18.09-32.674 13.317Zm-1.61-4.107c-5.088-3.648-8.104-8.102-13.76-20.319-5.11-11.038-6.189-14.213-9.271-27.293-4.97-21.084-6.583-24.558-19.015-40.948C18.083 53.6 15.985 49.623 15.253 41.63c-.819-8.961 3.25-18.047 10.786-24.08 6.825-5.464 14.77-7.37 29.668-7.118 12.943.219 16.488-.3 28.652-4.185 12.477-3.985 16.511-4.462 22.053-2.608 9.602 3.214 15.7 10.45 22.992 27.286 2.83 6.533 6.154 13.838 7.389 16.233 3.465 6.727 5.117 12.596 5.117 18.178 0 6.88-4.164 23.177-10.13 39.647-1.916 5.288-2.68 6.499-4.13 6.534-2.086.051-2.764 1.902-.974 2.66 3.107 1.313-18.501 29.175-30.935 39.887-8.694 7.49-16.692 8.549-24.155 3.199ZM1.7 141.592c-3.5-2.817 1.481-8.787 6.475-7.762 4.433.91 4.198 4.793-.453 7.463-3.414 1.961-3.925 1.986-6.022.299Zm62.26.773c.135-.659.653-1.115 1.15-1.013.497.102.793.725.658 1.384-.135.659-.653 1.115-1.15 1.013-.497-.102-.794-.725-.658-1.384Zm9.86-2.139c.15-.732.685-1.112 1.187-.845.502.267.843.827.757 1.244-.085.417-.62.798-1.186.845-.567.048-.908-.511-.758-1.244Zm-6.904-3.082c.15-.732.684-1.112 1.186-.845.502.267.843.827.757 1.244-.085.417-.62.798-1.186.845-.567.048-.908-.511-.757-1.244Zm16.847.544c.09-.439.774-.674 1.52-.52.746.153 1.282.637 1.192 1.077-.09.439-.774.673-1.52.52-.746-.153-1.282-.638-1.192-1.077Zm28.593-10.781c.09-.44.774-.674 1.52-.521.746.153 1.283.638 1.192 1.077-.09.44-.774.674-1.52.521-.746-.153-1.282-.638-1.192-1.077ZM61.89 111.138c.15-.732.684-1.112 1.186-.845.502.267.843.827.758 1.244-.086.417-.62.798-1.187.846-.566.047-.907-.512-.757-1.245Zm10.213 1.618c.275-.436.886-.714 1.359-.617.472.098.925.593 1.006 1.102.081.509-.53.786-1.359.616-.829-.17-1.281-.666-1.006-1.101Zm39.675 7.788c.151-.732.685-1.112 1.187-.845.502.267.843.827.757 1.244-.085.417-.62.798-1.186.846-.567.047-.908-.512-.758-1.245Zm7.725-.912c.135-.659.653-1.114 1.15-1.012.497.102.793.724.658 1.383s-.653 1.115-1.15 1.013c-.497-.102-.793-.725-.658-1.384Zm-63.204-13.387c.09-.44.774-.674 1.52-.521.746.153 1.282.638 1.192 1.077-.09.44-.774.674-1.52.521-.746-.153-1.282-.638-1.192-1.077Zm11.013 1.427c.09-.439.57-.715 1.068-.613.497.102.83.545.74.984-.09.44-.57.716-1.068.614-.497-.102-.83-.545-.74-.985Zm51.113 6.628c-.592-.786.481-1.866 1.621-1.632.468.096.74.713.605 1.373-.254 1.235-1.393 1.368-2.226.259Zm-30.157-7.738c.15-.733.684-1.112 1.186-.845.502.267.843.827.757 1.244-.085.417-.62.798-1.186.845-.567.048-.908-.511-.757-1.244Zm-6.965-1.908c.275-.436.886-.713 1.359-.616.472.097.925.593 1.006 1.101.081.509-.53.787-1.359.616-.829-.17-1.281-.665-1.006-1.101Zm36.221 1.669c.09-.44.571-.716 1.068-.614.497.103.83.545.74.985-.09.439-.571.715-1.068.613-.497-.102-.83-.545-.74-.984ZM82.51 97.888c.136-.659.856-1.073 1.602-.92.746.153 1.246.818 1.11 1.477-.135.659-.856 1.073-1.601.92-.746-.153-1.246-.818-1.11-1.477Zm42.938 9.483c-.833-1.108-.241-1.969 1.156-1.682.746.153 1.287.616 1.202 1.03-.207 1.007-1.767 1.439-2.358.652ZM76.264 96.19c.09-.44.57-.715 1.068-.613.497.102.83.545.74.984-.09.44-.57.715-1.068.613-.497-.102-.83-.545-.74-.984Zm49.302 4.134c.862-1.366 2.859-1.212 2.57.199-.143.696-.904 1.132-1.691.971-.787-.162-1.184-.688-.879-1.17ZM70.411 87.982c.143-.696.904-1.132 1.69-.971 1.597.328.967 1.99-.81 2.14-.628.053-1.023-.473-.88-1.17Zm6.829 2.049c-.592-.787.48-1.867 1.62-1.633.469.096.74.714.606 1.373-.254 1.235-1.393 1.368-2.226.26Zm-5.422-8.906c.09-.439.774-.673 1.52-.52.746.153 1.283.638 1.192 1.077-.09.44-.774.674-1.52.52-.746-.153-1.282-.637-1.192-1.077Zm20.15 2.818c.142-.696.713-1.024 1.268-.729 1.575.838 1.5 2.615-.097 2.287-.786-.161-1.314-.862-1.171-1.558Zm7.828 1.514c-.833-1.108-.241-1.969 1.157-1.682.745.153 1.286.616 1.201 1.03-.206 1.007-1.766 1.439-2.358.652Zm32.347 4.72c.091-.44.547-.721 1.015-.625.469.096 1.028.586 1.246 1.088.217.502-.24.783-1.015.624-.775-.159-1.336-.648-1.246-1.088ZM41.725 68.132c.862-1.366 2.86-1.212 2.57.199-.143.695-.904 1.132-1.691.97-.788-.161-1.184-.687-.88-1.169Zm24.72 5.507c-.852-1.132-.276-1.999 1.136-1.709.746.153 1.245.818 1.11 1.477-.256 1.247-1.395 1.365-2.246.232Zm40.125 4.472c.863-1.367 2.86-1.213 2.57.198-.142.696-.904 1.132-1.69.97-.788-.16-1.184-.686-.88-1.168ZM48.3 65.776c-.592-.787.48-1.867 1.62-1.633.469.096.74.714.605 1.373-.253 1.235-1.392 1.368-2.226.26Zm66.161 12.746c-.591-.786.481-1.867 1.621-1.633.469.096.74.714.605 1.373-.253 1.235-1.392 1.368-2.226.26ZM35.025 61.342c-.833-1.108-.241-1.97 1.157-1.682.746.153 1.287.616 1.202 1.03-.207 1.007-1.767 1.439-2.359.652Zm33.156 5.37c.143-.696.904-1.132 1.69-.97.788.161 1.184.687.88 1.168-.863 1.367-2.86 1.213-2.57-.198Zm-22.919-7.686c.09-.44.774-.674 1.52-.52.746.152 1.283.637 1.193 1.077-.09.439-.775.673-1.52.52-.746-.153-1.283-.638-1.193-1.077Zm-24.8-6.817c.275-.436.886-.714 1.359-.617.472.098.925.593 1.006 1.102.081.509-.53.786-1.359.616-.829-.17-1.281-.666-1.006-1.101ZM52.41 56.33c.09-.439.57-.715 1.068-.613.497.102.83.545.74.985-.09.439-.57.715-1.068.613-.497-.102-.83-.545-.74-.984Zm-24.905-7.192c.136-.659.653-1.115 1.15-1.013.498.102.794.725.658 1.384-.135.66-.652 1.115-1.15 1.013-.497-.102-.793-.725-.658-1.384Zm50.966 8.746c.14-.685.617-.94 1.059-.566.441.373.733 1.017.648 1.43-.085.415-.56.669-1.058.567-.497-.102-.79-.746-.649-1.431Zm19.14 3.145c.136-.66.653-1.115 1.15-1.013.498.102.794.725.659 1.384-.136.659-.653 1.114-1.15 1.013-.498-.103-.794-.725-.659-1.384Zm-24.986-6.793c.135-.66.653-1.115 1.15-1.013.497.102.793.725.658 1.384-.135.659-.653 1.115-1.15 1.013-.497-.102-.793-.725-.658-1.384Zm31.971 4.896c.135-.659.856-1.073 1.602-.92.746.153 1.245.818 1.11 1.477-.135.659-.856 1.073-1.602.92-.746-.153-1.246-.818-1.11-1.477ZM39.091 43.191c.15-.733.684-1.113 1.186-.846.502.267.843.828.757 1.245-.085.417-.62.797-1.186.845-.567.048-.908-.512-.758-1.244Zm36.573 5.425c.09-.44.774-.674 1.52-.52.746.152 1.282.637 1.192 1.076-.09.44-.774.674-1.52.52-.746-.152-1.282-.637-1.192-1.076Zm27.835 5.157c-.852-1.132-.277-1.999 1.135-1.71.746.154 1.246.818 1.11 1.477-.256 1.248-1.394 1.366-2.245.233Zm-33.384-7.961c-.255-.59.017-1.349.604-1.686.713-.409 1.223-.256 1.532.46.255.59-.017 1.348-.604 1.685-.713.41-1.223.256-1.532-.46Zm-32.103-7.953c-.591-.787.481-1.867 1.621-1.633.469.096.74.714.605 1.373-.253 1.235-1.392 1.368-2.226.26Zm72.827 13.813c.09-.44.57-.715 1.068-.613.497.102.83.545.74.984-.09.44-.571.716-1.068.614-.498-.102-.831-.545-.74-.985ZM45.251 36.13c.135-.659.856-1.073 1.602-.92.745.153 1.245.818 1.11 1.477-.136.659-.857 1.073-1.602.92-.746-.153-1.246-.818-1.11-1.477Zm89.586 17.97c.09-.44.57-.715 1.068-.613.497.102.83.545.74.984-.09.44-.571.715-1.068.613-.497-.102-.831-.545-.74-.984ZM74.235 40.275c-.852-1.132-.276-2 1.136-1.71.746.154 1.245.818 1.11 1.477-.256 1.248-1.395 1.366-2.246.233ZM44.59 30.167c.15-.732.684-1.112 1.186-.845.502.267.843.827.758 1.244-.086.417-.62.798-1.187.846-.566.047-.907-.512-.757-1.245Zm87.86 17.2c.15-.733.684-1.113 1.186-.846.502.267.843.828.758 1.245-.086.416-.62.797-1.187.845-.566.048-.907-.512-.757-1.244ZM51.877 29.859c-.852-1.132-.277-2 1.135-1.71.746.154 1.246.818 1.11 1.477-.255 1.248-1.394 1.366-2.245.233Zm71.729 13.034c-.833-1.109-.241-1.97 1.157-1.683.746.153 1.287.617 1.202 1.03-.207 1.008-1.767 1.44-2.359.653ZM43.457 22.796c.275-.435.886-.713 1.359-.616.473.097.925.593 1.006 1.102.081.508-.53.786-1.359.616-.829-.17-1.28-.666-1.006-1.102Zm7.375-.089c.09-.439.774-.673 1.52-.52.746.153 1.282.638 1.192 1.077-.09.44-.774.674-1.52.52-.746-.153-1.282-.637-1.192-1.077Zm71.032 12.851c.275-.435.886-.713 1.359-.616.473.097.925.593 1.006 1.101.081.51-.53.787-1.359.617-.829-.17-1.281-.666-1.006-1.102ZM58.556 21.795c.09-.44.774-.673 1.52-.52.746.153 1.283.638 1.192 1.077-.09.44-.774.674-1.52.52-.745-.153-1.282-.637-1.192-1.077Zm31.253 4.687c.275-.436.886-.713 1.359-.616.472.097.925.593 1.006 1.101.081.509-.53.787-1.359.616-.829-.17-1.281-.666-1.006-1.101Zm-38.165-9.135c-.592-.786.48-1.867 1.62-1.633.469.096.74.714.605 1.373-.253 1.235-1.392 1.369-2.225.26Zm37.152-.584c.135-.66.653-1.115 1.15-1.013.497.102.794.725.658 1.384-.135.66-.653 1.115-1.15 1.013-.497-.102-.793-.725-.658-1.384Zm4.305-4.273c-.833-1.108-.24-1.969 1.157-1.682.746.153 1.287.616 1.202 1.03-.207 1.007-1.767 1.439-2.358.652ZM87.14 7.525c.863-1.366 2.86-1.212 2.57.199-.143.696-.904 1.132-1.69.97-.788-.16-1.184-.687-.88-1.169Z" fill="#201B19"/></svg>
